mobile/apps/auth/assets/custom-icons/icons/dupe.svg

<svg role="img" viewBox="0 0 24 24" xmlns="http://www.w3.org/2000/svg">
  <title>Dupe</title>
  <g style="mix-blend-mode:difference">
    <path transform="scale(0.1142857143)" fill="white" d="M100.786 20.0433C100.779 16.975 100.058 13.949 98.6781 11.1975C97.2981 8.44594 95.2958 6.04208 92.8249 4.17033C90.3539 2.29857 87.48 1.00869 84.4236 0.399659C81.3673 -0.209369 78.2098 -0.121353 75.1933 0.656954C53.6483 6.22815 34.5852 18.6635 20.9816 36.0207C7.378 53.3779 0 74.6794 0 96.5982C0 118.517 7.378 139.818 20.9816 157.176C34.5852 174.533 53.6483 186.968 75.1933 192.539C78.2136 193.321 81.3758 193.41 84.4367 192.801C87.4975 192.191 90.3754 190.898 92.8488 189.022C95.3222 187.146 97.3253 184.737 98.7037 181.98C100.082 179.223 100.799 176.191 100.8 173.118L100.786 20.0433Z 
         M109.2 189.923C109.2 192.996 109.917 196.027 111.296 198.784C112.674 201.541 114.677 203.95 117.151 205.826C119.624 207.701 122.502 208.993 125.563 209.602C128.623 210.211 131.785 210.12 134.805 209.337C156.35 203.769 175.413 191.335 189.017 173.978C202.622 156.621 210 135.318 210 113.399C210 91.4794 202.622 70.1772 189.017 52.8203C175.413 35.4633 156.35 23.0293 134.805 17.4606C131.785 16.6792 128.624 16.5897 125.564 17.1991C122.504 17.8085 119.626 19.1004 117.153 20.9756C114.68 22.8508 112.677 25.2592 111.298 28.0156C109.92 30.772 109.202 33.8028 109.2 36.875V189.923Z"/>
  </g>
</svg>

<svg xmlns="http://www.w3.org/2000/svg" viewBox="0 0 24 24"><path fill="#fff" d="M100.786 20.043a19.828 19.828 0 0 0-2.108-8.845 20.159 20.159 0 0 0-5.853-7.028A20.571 20.571 0 0 0 84.424.4a20.738 20.738 0 0 0-9.23.257C53.647 6.228 34.584 18.663 20.981 36.021 7.378 53.378 0 74.679 0 96.598c0 21.919 7.378 43.22 20.982 60.578 13.603 17.357 32.666 29.792 54.211 35.363 3.02.782 6.183.871 9.244.262a20.575 20.575 0 0 0 8.412-3.779 20.158 20.158 0 0 0 5.855-7.042 19.828 19.828 0 0 0 2.096-8.862l-.014-153.075Zm8.414 169.88a19.8 19.8 0 0 0 2.096 8.861 20.148 20.148 0 0 0 5.855 7.042 20.566 20.566 0 0 0 8.412 3.776c3.06.609 6.222.518 9.242-.265 21.545-5.568 40.608-18.002 54.212-35.359C202.622 156.621 210 135.318 210 113.399c0-21.92-7.378-43.222-20.983-60.579-13.604-17.357-32.667-29.79-54.212-35.36a20.736 20.736 0 0 0-9.241-.26 20.571 20.571 0 0 0-8.411 3.776 20.16 20.16 0 0 0-5.855 7.04 19.836 19.836 0 0 0-2.098 8.859v153.048Z" style="mix-blend-mode:difference" transform="scale(.11429)"/></svg>
